svg/link_plus.svg

<svg xmlns="http://www.w3.org/2000/svg" viewBox="0 0 24 24"><path d="M7 7h4v2H7a3 3 0 0 0-3 3 3 3 0 0 0 3 3h4v2H7a5 5 0 0 1-5-5 5 5 0 0 1 5-5m10 0a5 5 0 0 1 5 5h-2a3 3 0 0 0-3-3h-4V7zm-9 4h8v2H8zm9 1h2v3h3v2h-3v3h-2v-3h-3v-2h3z"/></svg>

<?xml version="1.0" encoding="UTF-8"?><!DOCTYPE svg PUBLIC "-//W3C//DTD SVG 1.1//EN" "http://www.w3.org/Graphics/SVG/1.1/DTD/svg11.dtd"><svg xmlns="http://www.w3.org/2000/svg" xmlns:xlink="http://www.w3.org/1999/xlink" version="1.1" id="mdi-link-plus" width="24" height="24" viewBox="0 0 24 24"><path d="M7,7H11V9H7A3,3 0 0,0 4,12A3,3 0 0,0 7,15H11V17H7A5,5 0 0,1 2,12A5,5 0 0,1 7,7M17,7A5,5 0 0,1 22,12H20A3,3 0 0,0 17,9H13V7H17M8,11H16V13H8V11M17,12H19V15H22V17H19V20H17V17H14V15H17V12Z" /></svg>
